rospo-newyear-dark/symbolic/mimetypes/application-certificate-symbolic.svg

<svg height="16" width="16" xmlns="http://www.w3.org/2000/svg"><g fill="#d3dae3"><path d="m2 2c-.52 0-1 .47-1 1v10c0 .52.48 1 1 1h4v-2h-3v-8h11v8h-2v2h3c .52 0 1-.44 1-1v-10c0-.47-.44-1-1-1z"/><path d="m7 11v5l2-2 2 2v-5"/><path d="m9 6a3 3 0 0 0 -3 3 3 3 0 0 0 3 3 3 3 0 0 0 3-3 3 3 0 0 0 -3-3zm0 1a2 2 0 0 1 2 2 2 2 0 0 1 -2 2 2 2 0 0 1 -2-2 2 2 0 0 1 2-2z"/></g></svg>

<svg xmlns="http://www.w3.org/2000/svg" width="16" height="16" version="1.1">
 <path style="fill:#d3dae3" d="M 2,2 C 1.48,2 1,2.47 1,3 V 13 C 1,13.52 1.48,14 2,14 H 6 V 12 H 3 V 4 H 14 V 12 H 12 V 14 H 15 C 15.52,14 16,13.56 16,13 V 3 C 16,2.53 15.56,2 15,2 Z"/>
 <path style="fill:#d3dae3" d="M 7,11 V 16 16 L 9,14 11,16 V 16 11"/>
 <path style="fill:#d3dae3" d="M 9 6 A 3 3 0 0 0 6 9 A 3 3 0 0 0 9 12 A 3 3 0 0 0 12 9 A 3 3 0 0 0 9 6 z M 9 7 A 2 2 0 0 1 11 9 A 2 2 0 0 1 9 11 A 2 2 0 0 1 7 9 A 2 2 0 0 1 9 7 z"/>
</svg>
